icon-themes/sifr_svg/cmd/lc_arrowshapes.up-arrow.svg

<svg viewBox="0 0 24 24" xmlns="http://www.w3.org/2000/svg"><g fill="#555753"><path d="m9 22v-13h-4v-1.777344l5.875-5.222656h2.25l5.875 5.222656v1.777344h-4v13zm2-2h2v-13h2.138672l-3.138672-3-3.1386719 3h2.1386719z"/><path d="m11 20v-13h-2.1386719l3.1386719-3 3.138672 3h-2.138672v13z" opacity=".35"/></g></svg>

<svg viewBox="0 0 24 24" xmlns="http://www.w3.org/2000/svg">
  <path
     style="fill:#555753"
     d="M 9,22 V 9 H 5 V 7.222656 L 10.875,2 h 2.25 L 19,7.222656 V 9 h -4 v 13 z m 2,-2 h 2 V 7 h 2.138672 L 12,4 8.8613281,7 H 11 Z"
     />
  <path
     style="opacity:0.35;fill:#555753"
     d="M 11,20 V 7 H 8.8613281 L 12,4 15.138672,7 H 13 v 13 z"
     />
</svg>
